media/service-06.svg

<svg width="100" height="100" viewBox="0 0 100 100" fill="none" xmlns="http://www.w3.org/2000/svg">
<circle cx="50" cy="50" r="50" fill="#0F75BC" fill-opacity="0.12"/>
<path d="M83.3103 50.748H80.0848C81.5624 48.8753 82.3672 46.56 82.3696 44.1746V40.6226C82.3657 38.2647 81.5809 35.9745 80.1379 34.1097C78.6949 32.2449 76.6749 30.9105 74.3935 30.315V28.9537C74.3935 28.7361 74.307 28.5275 74.1532 28.3736C73.9994 28.2198 73.7907 28.1333 73.5731 28.1333C73.3556 28.1333 73.1469 28.2198 72.9931 28.3736C72.8393 28.5275 72.7528 28.7361 72.7528 28.9537V30.0201C72.4078 29.986 72.0606 29.9683 71.7138 29.9683H67.7503V28.9538C67.7503 28.7362 67.6639 28.5276 67.51 28.3738C67.3562 28.2199 67.1475 28.1335 66.93 28.1335C66.7124 28.1335 66.5038 28.2199 66.3499 28.3738C66.1961 28.5276 66.1097 28.7362 66.1097 28.9538V29.9683H60.8323C60.7823 29.1331 60.4155 28.3485 59.8067 27.7745C59.198 27.2006 58.3932 26.8805 57.5565 26.8796H53.1884C52.3519 26.8807 51.5473 27.2008 50.9387 27.7747C50.3301 28.3486 49.9633 29.1331 49.9133 29.9681H49.9099C47.0849 29.9712 44.3765 31.0946 42.3789 33.092C40.3812 35.0894 39.2574 37.7977 39.254 40.6226V44.1746C39.2532 46.7954 40.224 49.3235 41.9788 51.2703V55.9501H40.2407L38.1588 54.4492L37.9386 41.3316C37.9221 40.5185 37.614 39.7383 37.0704 39.1333C36.5269 38.5282 35.7842 38.1386 34.9774 38.0352V35.9755C34.9774 35.758 34.891 35.5493 34.7372 35.3955C34.5833 35.2416 34.3747 35.1552 34.1571 35.1552H26.4353C26.2177 35.1552 26.009 35.2416 25.8552 35.3955C25.7014 35.5493 25.6149 35.758 25.6149 35.9755V38.0085H23.9524C23.3229 38.0063 22.7054 38.1804 22.1698 38.5112C21.6343 38.8421 21.2021 39.3163 20.9223 39.8802C20.6505 40.422 20.379 40.9749 20.115 41.5237C17.7933 46.3529 16.6161 49.6325 16.6161 51.2716V61.1219C16.3862 61.2841 16.1985 61.4989 16.0686 61.7485C15.9387 61.998 15.8705 62.2751 15.8696 62.5564V65.8417C15.8701 66.3075 16.0554 66.7541 16.3848 67.0835C16.7141 67.4128 17.1607 67.5981 17.6265 67.5986H24.2108C24.4284 67.5986 24.637 67.5122 24.7909 67.3583C24.9447 67.2045 25.0312 66.9958 25.0312 66.7783V65.3113C25.031 64.5461 25.1815 63.7884 25.4742 63.0815C25.7668 62.3745 26.1959 61.7321 26.7369 61.191C27.2779 60.6499 27.9202 60.2207 28.627 59.9279C29.3339 59.635 30.0916 59.4843 30.8567 59.4843H34.1353C34.9006 59.484 35.6584 59.6344 36.3656 59.9271C37.0727 60.2198 37.7152 60.649 38.2563 61.1902C38.7975 61.7314 39.2267 62.3739 39.5194 63.081C39.8121 63.7881 39.9626 64.546 39.9622 65.3113V66.7783C39.9622 66.9958 40.0486 67.2045 40.2025 67.3583C40.3563 67.5122 40.565 67.5986 40.7825 67.5986H43.5675V68.2138C43.5682 68.8663 43.8278 69.4918 44.2891 69.9531C44.7505 70.4145 45.376 70.674 46.0284 70.6748H56.5093C57.1617 70.674 57.7872 70.4145 58.2486 69.9531C58.7099 69.4918 58.9695 68.8663 58.9702 68.2138V67.5986H61.7675C61.985 67.5986 62.1937 67.5122 62.3475 67.3583C62.5014 67.2045 62.5878 66.9958 62.5878 66.7783V65.3113C62.5877 64.5461 62.7382 63.7885 63.0309 63.0815C63.3236 62.3746 63.7527 61.7323 64.2937 61.1912C64.8346 60.6501 65.4769 60.2208 66.1838 59.928C66.8906 59.6351 67.6482 59.4844 68.4134 59.4843H71.3542C72.8362 59.4848 74.2624 60.0498 75.3426 61.0645C76.4228 62.0791 77.0759 63.4672 77.169 64.9462C77.1761 65.066 77.1798 65.1888 77.1798 65.3113V66.7783C77.1798 66.9958 77.2662 67.2045 77.4201 67.3583C77.5739 67.5122 77.7825 67.5986 78.0001 67.5986C78.2177 67.5986 78.4263 67.5122 78.5801 67.3583C78.734 67.2045 78.8204 66.9958 78.8204 66.7783V65.3113C78.8204 65.2755 78.8177 65.2398 78.8173 65.2038L82.8669 60.5007C82.9951 60.3508 83.0655 60.16 83.0655 59.9627V56.7705C83.0655 56.5529 82.9791 56.3442 82.8253 56.1904C82.6714 56.0366 82.4628 55.9501 82.2452 55.9501H81.6272V55.2638H83.3103C83.5278 55.2638 83.7365 55.1774 83.8903 55.0236C84.0441 54.8697 84.1306 54.6611 84.1306 54.4435V51.5683C84.1306 51.3507 84.0441 51.1421 83.8903 50.9883C83.7365 50.8344 83.5278 50.748 83.3103 50.748ZM27.2556 36.7958H33.3368V38.0085H27.2556V36.7958ZM21.3712 42.6994H25.3046V48.3185L18.42 50.1596C18.7991 48.559 19.827 45.9533 21.3712 42.6994ZM23.3905 65.3113V65.958H17.6265C17.5959 65.9572 17.5668 65.9447 17.5451 65.9231C17.5235 65.9014 17.511 65.8723 17.5103 65.8417V62.5564C17.5107 62.5306 17.5196 62.5056 17.5354 62.4852C17.5513 62.4649 17.5734 62.4502 17.5983 62.4435C17.6076 62.4415 17.617 62.4403 17.6265 62.4402H23.9621C23.5836 63.35 23.3893 64.3259 23.3905 65.3113ZM39.1556 59.7828C37.7814 58.5347 35.9916 57.8434 34.1353 57.8437H30.8567C29.704 57.8428 28.5667 58.1093 27.5343 58.6222C26.5019 59.1351 25.6026 59.8804 24.9069 60.7996H23.0076C23.4295 59.4212 24.7116 56.8638 28.5138 55.995C28.6188 55.971 28.7181 55.9265 28.806 55.8642C28.8938 55.8018 28.9685 55.7228 29.0258 55.6315C29.0831 55.5403 29.1219 55.4387 29.1399 55.3324C29.1579 55.2262 29.1549 55.1175 29.1309 55.0125C29.1069 54.9074 29.0624 54.8081 29.0001 54.7203C28.9377 54.6324 28.8586 54.5577 28.7674 54.5004C28.6762 54.4431 28.5745 54.4044 28.4683 54.3863C28.3621 54.3683 28.2534 54.3714 28.1483 54.3954C24.8324 55.1531 23.113 57.0416 22.2544 58.4926C21.8293 59.2113 21.5118 59.9885 21.312 60.7993H18.2567V51.9014L32.2444 48.1617C32.6814 48.0441 33.0799 47.8139 33.4003 47.4942C33.6411 47.2554 33.8321 46.971 33.9621 46.6576C34.092 46.3442 34.1583 46.0081 34.1571 45.6689V42.7294C34.1568 42.2867 33.9809 41.8621 33.6679 41.5489C33.355 41.2357 32.9306 41.0594 32.4878 41.0587H22.1689C22.2424 40.9105 22.3156 40.7618 22.3893 40.6148C22.5336 40.3239 22.7566 40.0792 23.0329 39.9085C23.3091 39.7379 23.6277 39.648 23.9524 39.6492H34.5632C35.0182 39.6512 35.4545 39.8311 35.7787 40.1504C36.1029 40.4697 36.2894 40.9032 36.2983 41.3582L36.5112 54.0537H31.3979C31.1803 54.0537 30.9717 54.1401 30.8178 54.294C30.664 54.4478 30.5776 54.6565 30.5776 54.874C30.5776 55.0916 30.664 55.3002 30.8178 55.4541C30.9717 55.6079 31.1803 55.6943 31.3979 55.6943H37.0802L39.1552 57.1902L39.1556 59.7828ZM26.9452 47.881V42.6994H32.4878C32.4917 42.6994 32.4955 42.7002 32.499 42.7018C32.5026 42.7033 32.5058 42.7056 32.5085 42.7084C32.5111 42.7112 32.5132 42.7145 32.5146 42.7181C32.516 42.7217 32.5166 42.7256 32.5165 42.7294V45.6689C32.517 45.7923 32.4929 45.9146 32.4457 46.0286C32.3984 46.1426 32.3289 46.2461 32.2413 46.3329C32.1244 46.4498 31.9789 46.5339 31.8194 46.5771L26.9452 47.881ZM74.3935 32.0216C76.2273 32.5948 77.8306 33.738 78.97 35.2851C80.1094 36.8321 80.7256 38.7023 80.729 40.6237V44.1757C80.721 46.0961 80.1031 47.9643 78.9644 49.5107C77.8256 51.0571 76.225 52.2017 74.3935 52.7792V32.0216ZM74.3935 54.4866C75.8926 54.0938 77.2878 53.3782 78.4813 52.3897H79.9866V55.9512H74.3935V54.4866ZM67.7503 31.6087H71.7138C72.0611 31.6096 72.408 31.6307 72.7528 31.6719V32.7667H67.7503V31.6087ZM67.7503 34.4074H72.7528V35.6884H67.7503V34.4074ZM67.7503 37.3291H72.7528V38.6087H67.7503V37.3291ZM67.7503 40.2494H72.7528V41.5304H67.7503V40.2494ZM67.7503 43.171H72.7528V44.4521H67.7503V43.171ZM67.7503 46.0927H72.7528V47.3738H67.7503V46.0927ZM67.7503 49.0144H72.7528V50.2818H67.7503V49.0144ZM67.7503 51.9224H72.7528V53.1266C72.408 53.1678 72.0611 53.1889 71.7138 53.1898H67.7503V51.9224ZM67.7503 54.8304H71.7138C72.0606 54.8304 72.4079 54.8126 72.7528 54.7786V55.9501H67.7503V54.8304ZM53.1884 28.5203H57.5565C57.958 28.5209 58.3454 28.6685 58.6454 28.9353C58.9454 29.2021 59.1373 29.5695 59.1849 29.9681H51.5601C51.6076 29.5695 51.7995 29.202 52.0995 28.9353C52.3996 28.6685 52.7869 28.5208 53.1884 28.5203ZM40.8946 44.1746V40.6226C40.8975 38.2326 41.8483 35.9414 43.5384 34.2516C45.2285 32.5617 47.5199 31.6113 49.9099 31.6087H66.1097V53.1898H63.8497L62.797 51.1866C62.7274 51.0543 62.623 50.9434 62.495 50.8661C62.367 50.7888 62.2204 50.748 62.0709 50.748H60.8919C60.6744 50.748 60.4657 50.8344 60.3119 50.9883C60.1581 51.1421 60.0716 51.3507 60.0716 51.5683C60.0716 51.7859 60.1581 51.9945 60.3119 52.1484C60.4657 52.3022 60.6744 52.3886 60.8919 52.3886H61.5755L63.4475 55.9501H50.8694L52.7413 52.3886H58.1572C58.3747 52.3886 58.5834 52.3022 58.7372 52.1484C58.891 51.9945 58.9775 51.7859 58.9775 51.5683C58.9775 51.3507 58.891 51.1421 58.7372 50.9883C58.5834 50.8344 58.3747 50.748 58.1572 50.748H52.2464C52.0969 50.748 51.9502 50.7888 51.8222 50.8661C51.6943 50.9434 51.5898 51.0543 51.5203 51.1866L50.4675 53.1898H49.9099C47.5211 53.1824 45.2323 52.2303 43.5433 50.5412C41.8542 48.8521 40.902 46.5633 40.8946 44.1746ZM66.1097 54.8304V55.9501H65.3008L64.713 54.8304H66.1097ZM49.6089 54.8229L49.0164 55.9501H43.6194V52.763C45.3566 54.0491 47.4481 54.7685 49.6089 54.8229ZM57.3296 68.2138C57.3293 68.4313 57.2428 68.6398 57.089 68.7936C56.9353 68.9474 56.7268 69.0339 56.5093 69.0341H46.0284C45.8109 69.0339 45.6024 68.9474 45.4486 68.7936C45.2948 68.6398 45.2083 68.4313 45.2081 68.2138V63.7759C45.2083 63.5584 45.2948 63.3499 45.4486 63.1961C45.6024 63.0423 45.8109 62.9558 46.0284 62.9556H56.5093C56.7268 62.9559 56.9353 63.0424 57.089 63.1962C57.2428 63.3499 57.3293 63.5584 57.3296 63.7759V68.2138ZM60.9472 65.3113V65.958H58.9702V63.7759C58.9695 63.1235 58.71 62.4979 58.2486 62.0366C57.7873 61.5752 57.1617 61.3157 56.5093 61.315H46.0284C45.376 61.3157 44.7504 61.5752 44.2891 62.0366C43.8277 62.4979 43.5682 63.1235 43.5675 63.7759V65.958H41.6028V65.3113C41.6015 64.1402 41.3252 62.9858 40.7962 61.941V60.7831H62.4825C61.4902 62.0845 60.951 63.6748 60.9472 65.3113ZM78.4794 63.0818C78.2208 62.2519 77.8185 61.4739 77.2908 60.7831H80.4587L78.4794 63.0818ZM81.4249 59.1425H75.5612C74.3231 58.2927 72.8558 57.8397 71.3542 57.8437H68.4134C66.9114 57.8397 65.4438 58.2927 64.2055 59.1425H40.7962V57.5908H81.4249V59.1425ZM82.4899 53.6232H81.6272V52.3886H82.4899V53.6232Z" fill="#0F75BC"/>
<path d="M32.6724 60.709C31.4449 60.7088 30.245 61.0725 29.2243 61.7542C28.2036 62.4359 27.408 63.405 26.9381 64.539C26.4682 65.6729 26.3451 66.9207 26.5844 68.1245C26.8237 69.3284 27.4146 70.4343 28.2824 71.3023C29.1503 72.1703 30.256 72.7615 31.4598 73.001C32.6636 73.2406 33.9115 73.1178 35.0455 72.6481C36.1795 72.1785 37.1488 71.3831 37.8307 70.3625C38.5127 69.342 38.8767 68.1421 38.8767 66.9147C38.8748 65.2697 38.2205 63.6925 37.0575 62.5292C35.8944 61.3659 34.3174 60.7113 32.6724 60.709ZM32.6724 71.4797C31.7694 71.48 30.8867 71.2125 30.1358 70.7111C29.3849 70.2096 28.7996 69.4968 28.4538 68.6626C28.1081 67.8285 28.0175 66.9106 28.1935 66.025C28.3695 65.1393 28.8042 64.3258 29.4425 63.6872C30.0809 63.0487 30.8943 62.6137 31.7799 62.4375C32.6655 62.2612 33.5834 62.3516 34.4176 62.697C35.2519 63.0425 35.9649 63.6276 36.4666 64.3784C36.9683 65.1291 37.236 66.0118 37.236 66.9147C37.2347 68.1248 36.7534 69.2849 35.8979 70.1407C35.0424 70.9965 33.8824 71.478 32.6724 71.4797Z" fill="#0F75BC"/>
<path d="M32.6723 64.8218C32.2583 64.8218 31.8536 64.9445 31.5094 65.1745C31.1651 65.4045 30.8969 65.7314 30.7384 66.1139C30.58 66.4964 30.5386 66.9173 30.6193 67.3233C30.7001 67.7293 30.8994 68.1023 31.1922 68.395C31.4849 68.6878 31.8579 68.8871 32.2639 68.9679C32.6699 69.0486 33.0908 69.0072 33.4733 68.8488C33.8558 68.6903 34.1827 68.4221 34.4127 68.0778C34.6427 67.7336 34.7654 67.3289 34.7654 66.9149C34.7646 66.36 34.5439 65.8281 34.1515 65.4357C33.7591 65.0434 33.2272 64.8226 32.6723 64.8218ZM32.6723 67.3675C32.5828 67.3675 32.4953 67.3409 32.4209 67.2912C32.3464 67.2415 32.2884 67.1708 32.2542 67.0881C32.2199 67.0054 32.211 66.9144 32.2284 66.8267C32.2459 66.7389 32.289 66.6582 32.3523 66.5949C32.4156 66.5317 32.4962 66.4886 32.584 66.4711C32.6718 66.4536 32.7628 66.4626 32.8454 66.4968C32.9281 66.5311 32.9988 66.5891 33.0485 66.6635C33.0983 66.7379 33.1248 66.8254 33.1248 66.9149C33.1245 67.0349 33.0767 67.1498 32.9919 67.2346C32.9071 67.3194 32.7922 67.3672 32.6723 67.3675Z" fill="#0F75BC"/>
<path d="M69.8242 60.709C68.5968 60.7088 67.3969 61.0725 66.3762 61.7542C65.3555 62.4359 64.5599 63.405 64.09 64.539C63.6201 65.6729 63.497 66.9207 63.7363 68.1245C63.9756 69.3284 64.5665 70.4343 65.4343 71.3023C66.3021 72.1703 67.4079 72.7615 68.6117 73.001C69.8155 73.2406 71.0633 73.1178 72.1973 72.6481C73.3313 72.1785 74.3006 71.3831 74.9826 70.3625C75.6645 69.342 76.0285 68.1421 76.0285 66.9147C76.0266 65.2697 75.3724 63.6925 74.2093 62.5292C73.0462 61.3659 71.4692 60.7113 69.8242 60.709ZM69.8242 71.4797C68.9213 71.48 68.0385 71.2125 67.2876 70.7111C66.5367 70.2096 65.9514 69.4968 65.6057 68.6626C65.26 67.8285 65.1694 66.9106 65.3454 66.025C65.5213 65.1393 65.956 64.3258 66.5944 63.6872C67.2328 63.0487 68.0462 62.6137 68.9317 62.4375C69.8173 62.2612 70.7353 62.3516 71.5695 62.697C72.4037 63.0425 73.1168 63.6276 73.6184 64.3784C74.1201 65.1291 74.3879 66.0118 74.3879 66.9147C74.3865 68.1248 73.9053 69.2849 73.0498 70.1407C72.1943 70.9965 71.0343 71.478 69.8242 71.4797Z" fill="#0F75BC"/>
<path d="M69.8241 64.8218C69.4101 64.8218 69.0054 64.9445 68.6612 65.1745C68.317 65.4045 68.0487 65.7314 67.8903 66.1139C67.7319 66.4964 67.6904 66.9173 67.7712 67.3233C67.8519 67.7293 68.0513 68.1023 68.344 68.395C68.6368 68.6878 69.0097 68.8871 69.4158 68.9679C69.8218 69.0486 70.2427 69.0072 70.6251 68.8488C71.0076 68.6903 71.3345 68.4221 71.5645 68.0778C71.7945 67.7336 71.9173 67.3289 71.9173 66.9149C71.9165 66.36 71.6957 65.8281 71.3033 65.4357C70.911 65.0434 70.379 64.8226 69.8241 64.8218ZM69.8241 67.3675C69.7346 67.3675 69.6471 67.3409 69.5727 67.2912C69.4983 67.2415 69.4403 67.1708 69.406 67.0881C69.3718 67.0054 69.3628 66.9144 69.3803 66.8267C69.3977 66.7389 69.4408 66.6582 69.5041 66.5949C69.5674 66.5317 69.648 66.4886 69.7358 66.4711C69.8236 66.4536 69.9146 66.4626 69.9973 66.4968C70.08 66.5311 70.1507 66.5891 70.2004 66.6635C70.2501 66.7379 70.2767 66.8254 70.2767 66.9149C70.2763 67.0349 70.2285 67.1498 70.1438 67.2346C70.059 67.3194 69.944 67.3672 69.8241 67.3675Z" fill="#0F75BC"/>
</svg>

<svg xmlns="http://www.w3.org/2000/svg" width="100" height="100" viewBox="0 0 100 100"><g transform="translate(-1155 -352)"><circle cx="50" cy="50" r="50" transform="translate(1155 352)" fill="#ecf6fd"/><path d="M83.31,50.748H80.085a10.629,10.629,0,0,0,2.285-6.573V40.623a10.671,10.671,0,0,0-7.976-10.308V28.954a.82.82,0,0,0-1.641,0V30.02c-.345-.034-.692-.052-1.039-.052H67.75V28.954a.82.82,0,1,0-1.641,0v1.014H60.832a3.285,3.285,0,0,0-3.276-3.089H53.188a3.285,3.285,0,0,0-3.275,3.088h0A10.667,10.667,0,0,0,39.254,40.623v3.552a10.593,10.593,0,0,0,2.725,7.1v4.68H40.241l-2.082-1.5-.22-13.118a3.393,3.393,0,0,0-2.961-3.3v-2.06a.82.82,0,0,0-.82-.82H26.435a.82.82,0,0,0-.82.82v2.033H23.952a3.369,3.369,0,0,0-3.03,1.872c-.272.542-.543,1.095-.807,1.644-2.322,4.829-3.5,8.109-3.5,9.748v9.85a1.762,1.762,0,0,0-.747,1.435v3.285A1.759,1.759,0,0,0,17.626,67.6h6.584a.82.82,0,0,0,.82-.82V65.311a5.826,5.826,0,0,1,5.826-5.827h3.279a5.824,5.824,0,0,1,5.827,5.827v1.467a.82.82,0,0,0,.82.82h2.785v.615a2.464,2.464,0,0,0,2.461,2.461H56.509a2.464,2.464,0,0,0,2.461-2.461V67.6h2.8a.82.82,0,0,0,.82-.82V65.311a5.826,5.826,0,0,1,5.826-5.827h2.941a5.828,5.828,0,0,1,5.815,5.462c.007.12.011.243.011.365v1.467a.82.82,0,0,0,1.641,0V65.311c0-.036,0-.072,0-.108l4.05-4.7a.828.828,0,0,0,.2-.538V56.771a.82.82,0,0,0-.82-.82h-.618v-.686H83.31a.82.82,0,0,0,.82-.82V51.568a.82.82,0,0,0-.82-.82ZM27.256,36.8h6.081v1.213H27.256Zm-5.884,5.9H25.3v5.619L18.42,50.16A43.716,43.716,0,0,1,21.371,42.7ZM23.39,65.311v.647H17.626a.119.119,0,0,1-.116-.116V62.556a.119.119,0,0,1,.088-.113.141.141,0,0,1,.028,0h6.336A7.451,7.451,0,0,0,23.39,65.311Zm15.765-5.529a7.465,7.465,0,0,0-5.02-1.939H30.857a7.455,7.455,0,0,0-5.95,2.956h-1.9a7.016,7.016,0,0,1,5.506-4.8.82.82,0,1,0-.365-1.6,8.851,8.851,0,0,0-5.894,4.1,8.549,8.549,0,0,0-.942,2.307H18.257V51.9l13.988-3.74a2.589,2.589,0,0,0,1.156-.667,2.557,2.557,0,0,0,.757-1.825V42.729a1.672,1.672,0,0,0-1.669-1.671H22.169c.073-.148.147-.3.22-.444a1.738,1.738,0,0,1,1.563-.966H34.563A1.743,1.743,0,0,1,36.3,41.358l.213,12.7H31.4a.82.82,0,1,0,0,1.641H37.08l2.075,1.5Zm-12.21-11.9V42.7h5.543l.011,0a.028.028,0,0,1,.009.007.031.031,0,0,1,.006.01.029.029,0,0,1,0,.011v2.939a.929.929,0,0,1-.275.664.946.946,0,0,1-.422.244ZM74.394,32.022a9.029,9.029,0,0,1,6.335,8.6v3.552a9.06,9.06,0,0,1-6.335,8.6Zm0,22.465a10.634,10.634,0,0,0,4.088-2.1h1.505v3.561H74.394ZM67.75,31.609h3.964a8.952,8.952,0,0,1,1.039.063v1.095h-5Zm0,2.8h5v1.281h-5Zm0,2.922h5v1.28h-5Zm0,2.92h5V41.53h-5Zm0,2.922h5v1.281h-5Zm0,2.922h5v1.281h-5Zm0,2.922h5v1.267h-5Zm0,2.908h5v1.2a8.952,8.952,0,0,1-1.039.063H67.75Zm0,2.908h3.964c.347,0,.694-.018,1.039-.052V55.95h-5ZM53.188,28.52h4.368a1.642,1.642,0,0,1,1.628,1.448H51.56a1.642,1.642,0,0,1,1.628-1.448ZM40.895,44.175V40.623a9.025,9.025,0,0,1,9.015-9.014h16.2V53.19H63.85l-1.053-2a.82.82,0,0,0-.726-.439H60.892a.82.82,0,1,0,0,1.641h.684l1.872,3.562H50.869l1.872-3.562h5.416a.82.82,0,0,0,0-1.641H52.246a.82.82,0,0,0-.726.439l-1.053,2H49.91a9.043,9.043,0,0,1-9.015-9.015ZM66.11,54.83v1.12H65.3l-.588-1.12Zm-16.5-.007-.592,1.127h-5.4V52.763A10.511,10.511,0,0,0,49.609,54.823ZM57.33,68.214a.821.821,0,0,1-.82.82H46.028a.821.821,0,0,1-.82-.82V63.776a.821.821,0,0,1,.82-.82H56.509a.821.821,0,0,1,.82.82Zm3.618-2.9v.647H58.97V63.776a2.464,2.464,0,0,0-2.461-2.461H46.028a2.464,2.464,0,0,0-2.461,2.461v2.182H41.6v-.647a7.479,7.479,0,0,0-.807-3.37V60.783H62.482A7.5,7.5,0,0,0,60.947,65.311Zm17.532-2.23a7.426,7.426,0,0,0-1.189-2.3h3.168Zm2.945-3.939H75.561a7.4,7.4,0,0,0-4.207-1.3H68.413a7.4,7.4,0,0,0-4.208,1.3H40.8V57.591H81.425Zm1.065-5.519h-.863V52.389h.863Z" transform="translate(1155 352)" fill="#0f75bc"/><path d="M32.672,60.709a6.213,6.213,0,1,0,4.385,1.82A6.206,6.206,0,0,0,32.672,60.709Zm0,10.771A4.57,4.57,0,1,1,35.9,70.141,4.565,4.565,0,0,1,32.672,71.48Z" transform="translate(1155 352)" fill="#0f75bc"/><path d="M32.672,64.822a2.1,2.1,0,1,0,1.479.614A2.093,2.093,0,0,0,32.672,64.822Zm0,2.546a.454.454,0,1,1,.32-.133A.453.453,0,0,1,32.672,67.368Z" transform="translate(1155 352)" fill="#0f75bc"/><path d="M69.824,60.709a6.213,6.213,0,1,0,4.385,1.82A6.206,6.206,0,0,0,69.824,60.709Zm0,10.771a4.57,4.57,0,1,1,3.226-1.339A4.565,4.565,0,0,1,69.824,71.48Z" transform="translate(1155 352)" fill="#0f75bc"/><path d="M69.824,64.822a2.1,2.1,0,1,0,1.479.614A2.093,2.093,0,0,0,69.824,64.822Zm0,2.546a.454.454,0,1,1,.32-.133A.453.453,0,0,1,69.824,67.368Z" transform="translate(1155 352)" fill="#0f75bc"/></g></svg>
